X:12
T:Mabou Communications
R:reel
C:Dougie MacDonald & Kinnon Beaton
O:20th century Cape Breton
D:Saturday Night Lively
N:Bookings,Mechanicals etc.
N:..... Dougie MacDonald <dougmd68@hotmail.com>
Z:P.S.C.
S:http://www.cranfordpub.com/dougie
Q:333
L:1/8
M:C|
K:D
fg|ag f2 gece|dA A/A/A B2 Bd|AGFA BdGB|ceAc dcBA|
ag f2 gece|dA A/A/A B2 Bd|AGFA BdGB|ceAc d2:|
|:AG|F2 DF Adfd|BG G/G/G BcdB|Ad f2 fagf|ecdB cAAG|
F2 DF Adfd|BG G/G/G BcdB|Adfa gbed|cABc d/d/d:|
W:Copyrights - Dougie MacDonald (SOCAN)
